X: 4
T:CLOSED POSITION PATTERN-JOHN MOORE
C:
N:Transcribed by Michael Bunting
L:1/8
Q:1/4=120
M:4/4
K:C
"CLOSED PATTERN 1"CE Gc d[ge] ac' | ag ed cA GE | C8 | "2"GA cd eg ac' | ag ed cA G2 | 
z8 | "3"CD EG Ac AG | ED C6 | "LICK"c'a g_b ag ^de | ga g^d =dc AG | cG Ac GD EG | 
C8 | "1"Ae Ae Ae Ae | z8 | "2"eA eA eA eA | z8 | "3"AA eA Ae AA | eA Ae AA e2 | 
"4"ee Ae eA ee | Ae eA ee A2 | z8 | "5"DA eD Ae DA | eD Ae DA e2 | z8 | "6"eA De AD eA | 
De AD Ae D2 | z8 | z8 | "7"DA eA DA eA | DA eA DA eA | z8 | "8"eA DA eA DA | eA DA eA DA | 
z8 |

